azure-icons/command-1010-Azure-Quickstart.svg

<svg xmlns="http://www.w3.org/2000/svg" viewBox="0 0 13 16"><path d="M9.4 1L6.6 5.5 5.7 7h4.9l-7.9 8h-.1l2.3-4.6.7-1.4H1.5l3.2-8h4.7m1.7-1H4L0 10h4l-3 6h2.1L13 6H7.5l3.6-6z"/></svg>

<svg xmlns="http://www.w3.org/2000/svg" viewBox="0 0 13 16"><title>Asset 9</title><path d="M9.4,1,6.6,5.5,5.7,7h4.9L2.7,15H2.6l2.3-4.6L5.6,9H1.5L4.7,1H9.4m1.7-1H4L0,10H4L1,16H3.1L13,6H7.5l3.6-6Z"/></svg>
